X: 2098
T: LADY McKENZIE OF COUL
C:
Q: "Strathspey."
R: Strathspey.
%R: strathspey
N: This is version 2, for ABC software that understands voice overlays.
B: James Kerr "Merry Melodies" v.2 p.13 #098
Z: 2016 John Chambers <jc:trillian.mit.edu>
M: C
L: 1/16
K: C
(uEF) |\
vG3vAuG3uc vAF3F3ud | vBG3G3uB (cd)ef g4 |\
vG3vAuG3uc vAF3F3uc | BcdB G3B c6 ::\
uf2 |\
(eg3) ~g4 va3vfud3uf |
x12 G3"^1st"f & e3gc3e dcBA G2"_2nd"G2 |\
[1 (eg3) ~g4 va3vfud3uf | ve3vg (Bc)dB c6 :|\
[2 c4 uG3uE F3A D3f | (fe)dc (ed)cB c6 |]
